images/icon/clock.svg

<svg width="70" height="70" fill="none" xmlns="http://www.w3.org/2000/svg"><g clip-path="url(#a)"><path d="M68.4614 33.4715C68.4576 14.9819 53.4656-.0037 34.9754 0 16.4858.0037 1.5002 14.9963 1.5039 33.4859c.0032 14.5643 9.4213 27.4554 23.2956 31.8854.1324.0417.2702.063.4086.0625a1.477 1.477 0 0 0 .7492-.2051 1.394 1.394 0 0 0 .6195-.7797l8.4547-26.7969c2.3114-.0117 4.1753-1.8953 4.163-4.2062-.0118-2.3114-1.8948-4.1753-4.2062-4.1635a4.1272 4.1272 0 0 0-1.7939.4187L22.0251 18.5302c-.5544-.5351-1.4372-.5196-1.9723.0342-.5223.541-.5223 1.3976 0 1.9386l11.1634 11.1762c-.8566 1.7485-.3669 3.8591 1.1733 5.0511l-8.0557 25.5344C8.4135 56.4002.2617 38.7405 6.1262 22.8203 11.9907 6.9 29.6503-1.2518 45.5706 4.6127 61.4909 10.477 69.6427 28.1374 63.7782 44.057a30.7208 30.7208 0 0 1-16.3234 17.4418l-.8706-4.1c-.1591-.7535-.8998-1.2353-1.6534-1.0756a1.4021 1.4021 0 0 0-.6398.3242l-8.3932 7.4934c-.5758.5121-.627 1.3938-.1143 1.9696.1666.1869.3802.3257.6195.4021l10.7158 3.4201c.7333.2355 1.5189-.1677 1.7544-.9015a1.395 1.395 0 0 0 .0369-.7167l-.8556-4.023c12.3907-5.2237 20.4357-17.3735 20.4069-30.82Zm-33.4785-1.3949c.7701 0 1.395.6248 1.395 1.3949 0 .7707-.6249 1.395-1.395 1.395-.7706 0-1.3949-.6243-1.3949-1.395 0-.7701.6243-1.3949 1.3949-1.3949Zm4.5945 32.515 4.7777-4.2618 1.3186 6.2132-6.0963-1.9514Z" fill="#212121"/><path d="M33.5879 6.9673v2.7899c0 .7706.6243 1.395 1.3949 1.395.7702 0 1.395-.6244 1.395-1.395v-2.79c0-.77-.6248-1.3949-1.395-1.3949-.7706 0-1.3949.6249-1.3949 1.395ZM8.4787 32.0765c-.7706 0-1.395.6249-1.395 1.395 0 .7706.6243 1.395 1.395 1.395h2.7899c.7707 0 1.395-.6244 1.395-1.395 0-.7701-.6243-1.395-1.395-1.395H8.4787ZM61.4866 34.8665c.7706 0 1.3949-.6244 1.3949-1.395 0-.7701-.6243-1.395-1.3949-1.395h-2.7899c-.7702 0-1.395.6249-1.395 1.395 0 .7706.6248 1.395 1.395 1.395h2.7899Z" fill="#2196F3"/></g><defs><clipPath id="a"><path fill="#fff" d="M0 0h70v70H0z"/></clipPath></defs></svg>

<svg width="70" height="70" viewBox="0 0 70 70" fill="none" xmlns="http://www.w3.org/2000/svg">
<g clip-path="url(#clip0_1_344)">
<path d="M68.4614 33.4715C68.4576 14.9819 53.4656 -0.00373771 34.9754 6.99302e-07C16.4858 0.00373911 1.50017 14.9963 1.50391 33.4859C1.50711 48.0502 10.9252 60.9413 24.7995 65.3713C24.9319 65.413 25.0697 65.4343 25.2081 65.4338C25.4719 65.4333 25.7304 65.3628 25.9573 65.2287C26.2527 65.0541 26.4732 64.7764 26.5768 64.449L35.0315 37.6521C37.3429 37.6404 39.2068 35.7568 39.1945 33.4459C39.1827 31.1345 37.2997 29.2706 34.9883 29.2824C34.3666 29.285 33.753 29.4282 33.1944 29.7011L22.0251 18.5302C21.4707 17.9951 20.5879 18.0106 20.0528 18.5644C19.5305 19.1054 19.5305 19.962 20.0528 20.503L31.2162 31.6792C30.3596 33.4277 30.8493 35.5383 32.3895 36.7303L24.3338 62.2647C8.41354 56.4002 0.261689 38.7405 6.12618 22.8203C11.9907 6.90002 29.6503 -1.25183 45.5706 4.61266C61.4909 10.4771 69.6427 28.1374 63.7782 44.0571C60.913 51.8351 55.0261 58.1252 47.4548 61.4989L46.5842 57.3989C46.4251 56.6454 45.6844 56.1636 44.9308 56.3233C44.6932 56.3741 44.4726 56.4857 44.291 56.6475L35.8978 64.1409C35.322 64.653 35.2708 65.5347 35.7835 66.1105C35.9501 66.2974 36.1637 66.4362 36.403 66.5126L47.1188 69.9327C47.8521 70.1682 48.6377 69.765 48.8732 69.0312C48.948 68.7994 48.9603 68.5527 48.9101 68.3145L48.0545 64.2915C60.4452 59.0678 68.4902 46.918 68.4614 33.4715V33.4715ZM34.9829 32.0766C35.753 32.0766 36.3779 32.7014 36.3779 33.4715C36.3779 34.2422 35.753 34.8665 34.9829 34.8665C34.2123 34.8665 33.588 34.2422 33.588 33.4715C33.588 32.7014 34.2123 32.0766 34.9829 32.0766ZM39.5774 64.5916L44.3551 60.3298L45.6737 66.543L39.5774 64.5916Z" fill="#212121"/>
<path d="M33.5879 6.96729V9.7572C33.5879 10.5278 34.2122 11.1522 34.9828 11.1522C35.753 11.1522 36.3778 10.5278 36.3778 9.7572V6.96729C36.3778 6.19717 35.753 5.57233 34.9828 5.57233C34.2122 5.57233 33.5879 6.19717 33.5879 6.96729Z" fill="#2196F3"/>
<path d="M8.4787 32.0765C7.70805 32.0765 7.08374 32.7014 7.08374 33.4715C7.08374 34.2421 7.70805 34.8665 8.4787 34.8665H11.2686C12.0393 34.8665 12.6636 34.2421 12.6636 33.4715C12.6636 32.7014 12.0393 32.0765 11.2686 32.0765H8.4787Z" fill="#2196F3"/>
<path d="M61.4866 34.8665C62.2572 34.8665 62.8815 34.2421 62.8815 33.4715C62.8815 32.7014 62.2572 32.0765 61.4866 32.0765H58.6967C57.9265 32.0765 57.3017 32.7014 57.3017 33.4715C57.3017 34.2421 57.9265 34.8665 58.6967 34.8665H61.4866Z" fill="#2196F3"/>
</g>
<defs>
<clipPath id="clip0_1_344">
<rect width="70" height="70" fill="white"/>
</clipPath>
</defs>
</svg>
